images/usecases/health-care/prison-2.svg

<svg width="285" height="210" viewBox="0 0 285 210" fill="none" xmlns="http://www.w3.org/2000/svg">
<rect x="12.75" y="33.7173" width="164.5" height="164.5" rx="82.25" stroke="#91A3BE" stroke-width="1.5"/>
<path d="M77.38 92.0626C77.38 93.3249 76.3567 94.3483 75.0943 94.3483C73.8319 94.3483 72.8086 93.3249 72.8086 92.0626C72.8086 90.8002 73.8319 89.7769 75.0943 89.7769C76.3567 89.7769 77.38 90.8002 77.38 92.0626Z" fill="#305680"/>
<path d="M57.9528 80.5383H52.2385C51.8177 80.5383 51.4766 80.8794 51.4766 81.3002V91.3008C51.4766 91.7216 51.8177 92.0627 52.2385 92.0627H66.3337M57.9528 80.5383V71.3008M57.9528 80.5383H66.3337H72.8099M72.8099 80.5383V71.3008M72.8099 80.5383H83.667H87.667M87.667 80.5383V71.3008M87.667 80.5383H100.715H102.524M102.524 80.5383V71.3008M102.524 80.5383H117.381M117.381 80.5383V71.3008M117.381 80.5383H132.238M132.238 80.5383H137.953C138.374 80.5383 138.715 80.8794 138.715 81.3002V91.3008C138.715 91.7216 138.374 92.0627 137.953 92.0627H83.667M132.238 80.5383V71.3008" stroke="#305680" stroke-width="4.57143" stroke-linecap="round"/>
<path d="M57.9531 92.2529V159.491C57.9531 160.122 58.4648 160.634 59.096 160.634H131.096C131.727 160.634 132.239 160.122 132.239 159.491V92.2529" stroke="#305680" stroke-width="4.57143"/>
<path d="M49 125.015L141 124.92M49 136.539H141M49 148.253H141" stroke="#305680" stroke-width="4.57143" stroke-linecap="round"/>
<path d="M112.379 133.586L119.402 140.158" stroke="#305680" stroke-width="4.57143" stroke-linecap="round"/>
<path d="M112.379 145.396L119.402 151.967" stroke="#305680" stroke-width="4.57143" stroke-linecap="round"/>
<path d="M91.6426 133.586L98.6658 140.158" stroke="#305680" stroke-width="4.57143" stroke-linecap="round"/>
<path d="M91.6426 145.396L98.6658 151.967" stroke="#305680" stroke-width="4.57143" stroke-linecap="round"/>
<path d="M112.379 121.396L119.402 127.967" stroke="#305680" stroke-width="4.57143" stroke-linecap="round"/>
<path d="M91.6426 121.396L98.6658 127.967" stroke="#305680" stroke-width="4.57143" stroke-linecap="round"/>
<path d="M70.9043 121.396L77.9275 127.967" stroke="#305680" stroke-width="4.57143" stroke-linecap="round"/>
<path d="M70.9043 133.586L77.9275 140.158" stroke="#305680" stroke-width="4.57143" stroke-linecap="round"/>
<path d="M70.9043 145.396L77.9275 151.967" stroke="#305680" stroke-width="4.57143" stroke-linecap="round"/>
<path d="M97.3086 0.467285V16.4673" stroke="#91A3BE" stroke-width="1.5"/>
<line x1="263.629" y1="111.928" x2="192.856" y2="111.928" stroke="#91A3BE" stroke-width="1.5"/>
<mask id="path-18-inside-1_10903_21895" fill="white">
<path d="M96.6276 15.461C109.37 15.429 121.993 17.9157 133.774 22.7788C145.556 27.6418 156.263 34.7857 165.285 43.801C174.306 52.8164 181.463 63.5262 186.346 75.317C191.229 87.1078 193.742 99.7478 193.741 112.513L192.394 112.513C192.394 99.9253 189.916 87.461 185.101 75.8343C180.286 64.2075 173.229 53.6467 164.333 44.7567C155.437 35.8667 144.878 28.8223 133.261 24.0269C121.644 19.2314 109.196 16.7793 96.631 16.8108L96.6276 15.461Z"/>
</mask>
<path d="M96.6276 15.461C109.37 15.429 121.993 17.9157 133.774 22.7788C145.556 27.6418 156.263 34.7857 165.285 43.801C174.306 52.8164 181.463 63.5262 186.346 75.317C191.229 87.1078 193.742 99.7478 193.741 112.513L192.394 112.513C192.394 99.9253 189.916 87.461 185.101 75.8343C180.286 64.2075 173.229 53.6467 164.333 44.7567C155.437 35.8667 144.878 28.8223 133.261 24.0269C121.644 19.2314 109.196 16.7793 96.631 16.8108L96.6276 15.461Z" fill="#B2BFD1" stroke="#91A3BE" stroke-width="2" mask="url(#path-18-inside-1_10903_21895)"/>
<path d="M274.243 121.949C268.796 121.949 264.377 117.524 264.377 112.063C264.377 106.603 268.796 102.178 274.243 102.178C279.691 102.178 284.109 106.603 284.109 112.063C284.109 117.524 279.691 121.949 274.243 121.949Z" fill="#F4F8FE" stroke="#91A3BE" stroke-width="1.5"/>
</svg>

<svg width="285" height="210" fill="none" xmlns="http://www.w3.org/2000/svg"><rect x="12.75" y="33.717" width="164.5" height="164.5" rx="82.25" stroke="#91A3BE" stroke-width="1.5"/><path d="M77.38 92.063a2.286 2.286 0 1 1-4.571 0 2.286 2.286 0 0 1 4.571 0Z" fill="#305680"/><path d="M57.953 80.538h-5.715a.762.762 0 0 0-.761.762v10c0 .422.34.763.762.763h14.095m-8.381-11.525v-9.237m0 9.237H72.81m0 0v-9.237m0 9.237h14.857m0 0v-9.237m0 9.237h14.857m0 0v-9.237m0 9.237h14.857m0 0v-9.237m0 9.237h14.857m0 0h5.715c.421 0 .762.341.762.762v10c0 .422-.341.763-.762.763H83.667m48.571-11.525v-9.237" stroke="#305680" stroke-width="4.571" stroke-linecap="round"/><path d="M57.953 92.253v67.238c0 .631.512 1.143 1.143 1.143h72c.631 0 1.143-.512 1.143-1.143V92.253" stroke="#305680" stroke-width="4.571"/><path d="m49 125.015 92-.095m-92 11.619h92m-92 11.714h92M112.379 133.586l7.023 6.572M112.379 145.396l7.023 6.571M91.643 133.586l7.023 6.572M91.643 145.396l7.023 6.571M112.379 121.396l7.023 6.571M91.643 121.396l7.023 6.571M70.904 121.396l7.023 6.571M70.904 133.586l7.023 6.572M70.904 145.396l7.023 6.571" stroke="#305680" stroke-width="4.571" stroke-linecap="round"/><path d="M97.309.467v16M263.629 111.928h-70.773" stroke="#91A3BE" stroke-width="1.5"/><mask id="a" fill="#fff"><path d="M96.628 15.461a96.714 96.714 0 0 1 37.146 7.318A96.864 96.864 0 0 1 165.285 43.8a97.058 97.058 0 0 1 21.061 31.516 97.196 97.196 0 0 1 7.395 37.196h-1.347a95.865 95.865 0 0 0-7.293-36.679 95.699 95.699 0 0 0-20.768-31.077 95.52 95.52 0 0 0-31.072-20.73 95.37 95.37 0 0 0-36.63-7.216l-.003-1.35Z"/></mask><path d="M96.628 15.461a96.714 96.714 0 0 1 37.146 7.318A96.864 96.864 0 0 1 165.285 43.8a97.058 97.058 0 0 1 21.061 31.516 97.196 97.196 0 0 1 7.395 37.196h-1.347a95.865 95.865 0 0 0-7.293-36.679 95.699 95.699 0 0 0-20.768-31.077 95.52 95.52 0 0 0-31.072-20.73 95.37 95.37 0 0 0-36.63-7.216l-.003-1.35Z" fill="#B2BFD1" stroke="#91A3BE" stroke-width="2" mask="url(#a)"/><path d="M274.243 121.949c-5.447 0-9.866-4.425-9.866-9.886 0-5.46 4.419-9.885 9.866-9.885 5.448 0 9.866 4.425 9.866 9.885 0 5.461-4.418 9.886-9.866 9.886Z" fill="#F4F8FE" stroke="#91A3BE" stroke-width="1.5"/></svg>
